picto/sectors-g-de-large.svg

<svg class="color-immutable" width="24" height="24" viewBox="0 0 24 24" fill="none" xmlns="http://www.w3.org/2000/svg"><path d="M0 22.5V1.5C0 0.675 0.675 0 1.5 0H22.5C23.325 0 24 0.675 24 1.5V22.5C24 23.325 23.325 24 22.5 24H1.5C0.675 24 0 23.325 0 22.5Z" fill="#2D327D"/><path d="M18.098 13.73V21.002H16.215L15.92 19.461C14.923 20.704 13.579 21.325 11.887 21.325C9.826 21.325 8.199 20.562 7.005 19.036C6.014 17.762 5.519 16.191 5.519 14.32C5.519 12.197 6.165 10.459 7.457 9.106C8.669 7.826 10.235 7.187 12.154 7.187C13.926 7.187 15.369 7.759 16.482 8.904C17.313 9.765 17.789 10.781 17.912 11.949H15.06C14.912 11.223 14.582 10.657 14.068 10.251C13.554 9.845 12.904 9.642 12.116 9.642C10.922 9.642 9.999 10.103 9.347 11.026C8.775 11.832 8.489 12.921 8.489 14.293C8.489 15.634 8.757 16.699 9.292 17.486C9.95 18.452 10.922 18.935 12.208 18.935C13.137 18.935 13.898 18.655 14.492 18.095C15.086 17.535 15.398 16.8 15.429 15.889H12.43V13.73H18.098Z" fill="white"/><path d="M4.81199 3.666H4.34399C4.33499 3.556 4.29399 3.472 4.22199 3.415C4.14999 3.358 4.04899 3.328 3.91799 3.328C3.80199 3.328 3.71199 3.351 3.64799 3.396C3.58399 3.442 3.55199 3.506 3.55199 3.588C3.55199 3.662 3.58299 3.715 3.64399 3.748C3.70299 3.781 3.85399 3.827 4.09599 3.886C4.35099 3.95 4.52799 4.014 4.62699 4.078C4.80899 4.197 4.89999 4.363 4.89999 4.575C4.89999 4.808 4.80899 4.991 4.62599 5.126C4.46499 5.244 4.24699 5.303 3.97199 5.303C3.66599 5.303 3.42899 5.233 3.25999 5.094C3.09099 4.954 3.00299 4.755 2.99699 4.498H3.48599C3.49299 4.623 3.52499 4.716 3.58299 4.776C3.67299 4.872 3.80899 4.921 3.99099 4.921C4.11399 4.921 4.21099 4.897 4.28299 4.849C4.36399 4.794 4.40499 4.718 4.40499 4.623C4.40499 4.528 4.34799 4.458 4.23399 4.413C4.17099 4.389 4.02299 4.344 3.79099 4.28C3.64499 4.24 3.53099 4.202 3.44899 4.166C3.36699 4.13 3.30199 4.09 3.25199 4.046C3.13799 3.943 3.07999 3.802 3.07999 3.621C3.07999 3.405 3.16999 3.233 3.34899 3.107C3.50199 3 3.70099 2.946 3.94499 2.946C4.15899 2.946 4.33899 2.989 4.48299 3.074C4.69099 3.196 4.80099 3.393 4.81199 3.666Z" fill="white"/><path d="M6.69599 4.726C6.67299 4.82 6.62999 4.909 6.56899 4.992C6.42099 5.194 6.20899 5.295 5.93199 5.295C5.68199 5.295 5.48099 5.216 5.33099 5.058C5.25699 4.981 5.19999 4.888 5.16099 4.78C5.11899 4.664 5.09799 4.543 5.09799 4.417C5.09799 4.173 5.16799 3.968 5.30899 3.802C5.46599 3.616 5.66899 3.524 5.91799 3.524C6.11899 3.524 6.28999 3.586 6.43199 3.71C6.53399 3.799 6.60699 3.909 6.65299 4.04C6.69899 4.171 6.72199 4.335 6.72199 4.533H5.55199C5.55599 4.615 5.56899 4.683 5.58999 4.738C5.64999 4.885 5.76499 4.958 5.93499 4.958C6.01799 4.958 6.08599 4.94 6.13799 4.903C6.18999 4.865 6.23299 4.807 6.26699 4.726H6.69599ZM6.26699 4.232C6.25899 4.151 6.23999 4.084 6.21199 4.031C6.18299 3.978 6.14199 3.937 6.08899 3.906C6.03699 3.875 5.97899 3.86 5.91599 3.86C5.81699 3.86 5.73499 3.893 5.66999 3.96C5.60599 4.026 5.56699 4.117 5.55499 4.232H6.26699Z" fill="white"/><path d="M8.57299 3.569L7.95899 4.189L8.64299 5.249H8.10199L7.65299 4.506L7.46999 4.68V5.249H7.02399V3H7.46999V4.167L8.04199 3.569H8.57299Z" fill="white"/><path d="M9.763 3.566V3.881H9.429V4.67C9.429 4.764 9.438 4.824 9.455 4.85C9.481 4.887 9.538 4.905 9.627 4.905C9.662 4.905 9.707 4.902 9.762 4.897V5.254C9.662 5.265 9.569 5.271 9.485 5.271C9.358 5.271 9.261 5.257 9.194 5.228C9.09 5.182 9.026 5.098 9 4.976C8.99 4.924 8.985 4.816 8.985 4.652V3.881H8.713V3.566H8.985V3.172H9.43V3.566H9.763Z" fill="white"/><path d="M10.769 3.52299C11.013 3.52299 11.212 3.604 11.367 3.766C11.52 3.926 11.596 4.139 11.596 4.406C11.596 4.682 11.514 4.90199 11.351 5.06599C11.199 5.21799 11 5.295 10.755 5.295C10.494 5.295 10.285 5.20999 10.131 5.03999C9.983 4.87699 9.909 4.66699 9.909 4.40899C9.909 4.15499 9.981 3.948 10.124 3.789C10.284 3.612 10.498 3.52299 10.769 3.52299ZM10.746 3.871C10.628 3.871 10.534 3.91899 10.465 4.01399C10.394 4.10999 10.359 4.24199 10.359 4.40899C10.359 4.58199 10.394 4.715 10.464 4.807C10.536 4.9 10.634 4.947 10.758 4.947C10.874 4.947 10.966 4.90399 11.033 4.81899C11.11 4.72499 11.148 4.588 11.148 4.40799C11.148 4.24 11.114 4.10899 11.046 4.01599C10.975 3.91899 10.875 3.871 10.746 3.871Z" fill="white"/><path d="M12.935 3.541V3.973C12.863 3.96 12.805 3.953 12.761 3.953C12.595 3.953 12.473 4.023 12.395 4.162C12.351 4.24 12.329 4.37 12.329 4.553V5.248H11.883V3.568H12.308V3.874C12.429 3.646 12.605 3.533 12.836 3.533C12.863 3.534 12.897 3.536 12.935 3.541Z" fill="white"/></svg>

<svg class="color-immutable" width="24" height="24" viewBox="0 0 24 24" fill="none" xmlns="http://www.w3.org/2000/svg"><g clip-path="url(#a)"><path d="M0 22.5v-21C0 .675.675 0 1.5 0h21c.825 0 1.5.675 1.5 1.5v21c0 .825-.675 1.5-1.5 1.5h-21C.675 24 0 23.325 0 22.5Z" fill="#2D327D"/><path d="M18.098 13.73v7.272h-1.883l-.295-1.541c-.997 1.243-2.341 1.864-4.033 1.864-2.061 0-3.688-.763-4.882-2.289-.991-1.274-1.486-2.845-1.486-4.716 0-2.123.646-3.861 1.938-5.214 1.212-1.28 2.778-1.919 4.697-1.919 1.772 0 3.215.572 4.328 1.717a5.035 5.035 0 0 1 1.43 3.045H15.06c-.148-.726-.478-1.292-.992-1.698-.514-.406-1.164-.609-1.952-.609-1.194 0-2.117.461-2.769 1.384-.572.806-.858 1.895-.858 3.267 0 1.341.268 2.406.803 3.193.658.966 1.63 1.449 2.916 1.449.929 0 1.69-.28 2.284-.84.594-.56.906-1.295.937-2.206H12.43V13.73h5.668ZM4.812 3.666h-.468a.34.34 0 0 0-.122-.251.478.478 0 0 0-.304-.087.464.464 0 0 0-.27.068.223.223 0 0 0-.096.192c0 .074.031.127.092.16.059.033.21.079.452.138.255.064.432.128.531.192a.563.563 0 0 1 .273.497.647.647 0 0 1-.274.551c-.161.118-.379.177-.654.177-.306 0-.543-.07-.712-.209-.169-.14-.257-.339-.263-.596h.489c.007.125.039.218.097.278.09.096.226.145.408.145a.52.52 0 0 0 .292-.072.26.26 0 0 0 .122-.226c0-.095-.057-.165-.171-.21a6.388 6.388 0 0 0-.443-.133 2.594 2.594 0 0 1-.342-.114.543.543 0 0 1-.369-.545c0-.216.09-.388.269-.514.153-.107.352-.161.596-.161.214 0 .394.043.538.128.208.122.318.319.329.592ZM6.696 4.726a.75.75 0 0 1-.127.266c-.148.202-.36.303-.637.303-.25 0-.451-.079-.601-.237a.777.777 0 0 1-.17-.278 1.058 1.058 0 0 1-.063-.363c0-.244.07-.449.211-.615a.76.76 0 0 1 .609-.278.754.754 0 0 1 .735.516c.046.131.069.295.069.493h-1.17c.004.082.017.15.038.205.06.147.175.22.345.22a.343.343 0 0 0 .203-.055.406.406 0 0 0 .129-.177h.429Zm-.429-.494a.544.544 0 0 0-.055-.201.332.332 0 0 0-.296-.171.328.328 0 0 0-.246.1.445.445 0 0 0-.115.272h.712ZM8.573 3.569l-.614.62.684 1.06h-.541l-.449-.743-.183.174v.569h-.446V3h.446v1.167l.572-.598h.531ZM9.763 3.566v.315h-.334v.789c0 .094.009.154.026.18.026.037.083.055.172.055.035 0 .08-.003.135-.008v.357c-.1.011-.193.017-.277.017a.762.762 0 0 1-.291-.043A.332.332 0 0 1 9 4.976a2.162 2.162 0 0 1-.015-.324v-.771h-.272v-.315h.272v-.394h.445v.394h.333ZM10.769 3.523a.79.79 0 0 1 .598.243c.153.16.229.373.229.64 0 .276-.082.496-.245.66a.807.807 0 0 1-.596.229c-.261 0-.47-.085-.624-.255-.148-.163-.222-.373-.222-.631 0-.254.072-.461.215-.62.16-.177.374-.266.645-.266Zm-.023.348a.33.33 0 0 0-.281.143.652.652 0 0 0-.106.395c0 .173.035.306.105.398.072.093.17.14.294.14a.332.332 0 0 0 .275-.128c.077-.094.115-.231.115-.411 0-.168-.034-.299-.102-.392a.35.35 0 0 0-.3-.145ZM12.935 3.541v.432a1.038 1.038 0 0 0-.174-.02.391.391 0 0 0-.366.209c-.044.078-.066.208-.066.391v.695h-.446v-1.68h.425v.306c.121-.228.297-.341.528-.341.027.001.061.003.099.008Z" fill="#fff"/></g><defs><clipPath id="a"><path fill="#fff" d="M0 0h24v24H0z"/></clipPath></defs></svg>
